X:71
M:2/4
L:1/8
K:D
| FA AB/c/ | d2 de/f/ | ge fd | BA FA | 
| fa af | ed de | fa af | e/g/e de | 
fa af | edd/e/f | gefd | BA A2 :|| 

